src/svg/it-github.svg

<svg width="24px" height="24px" viewBox="0 0 24 24" version="1.1"
     xmlns="http://www.w3.org/2000/svg">
  <title>Logo Github</title>
  <g stroke="none" stroke-width="1">
    <g>
      <g>
        <rect x="0" y="0" width="24" height="24" fill="none"></rect>
      </g>
      <path
        d="M12,2 C7.09217302,1.99644319 2.9071256,5.55498714 2.12165476,10.3995525 C1.33618392,15.2441179 4.18246968,19.9426831 8.84,21.49 C9.34,21.58 9.52,21.27 9.52,21.01 C9.52,20.75 9.52,20.14 9.52,19.31 C6.73,19.91 6.14,18 6.14,18 C5.95324616,17.3789239 5.54839688,16.8462274 5,16.5 C4.09,15.88 5.07,15.89 5.07,15.89 C5.7043712,15.9764496 6.26620843,16.3436635 6.6,16.89 C7.17447159,17.9226521 8.47720992,18.2942235 9.51,17.72 C9.555561,17.2130574 9.77867924,16.7384884 10.14,16.38 C8,16.17 5.62,15.31 5.62,11.48 C5.59830158,10.4886531 5.95600131,9.52644087 6.62,8.79 C6.31451541,7.92958972 6.35030157,6.98483516 6.72,6.15 C6.72,6.15 7.56,5.88 9.47,7.15 C11.1075973,6.70977778 12.8324027,6.70977778 14.47,7.15 C16.38,5.86 17.22,6.15 17.22,6.15 C17.5896984,6.98483516 17.6254846,7.92958972 17.32,8.79 C17.9839987,9.52644087 18.3416984,10.4886531 18.32,11.48 C18.32,15.32 15.98,16.16 13.75,16.41 C14.2322325,16.9001395 14.4800052,17.5742272 14.43,18.26 C14.43,19.6 14.43,20.68 14.43,21.01 C14.43,21.34 14.61,21.59 15.12,21.49 C19.7704286,19.9451251 22.6162702,15.2579634 21.8416791,10.4192515 C21.067088,5.58053956 16.9002928,2.0159754 12,2 Z"
      ></path>
    </g>
  </g>
</svg>

<svg xmlns="http://www.w3.org/2000/svg" viewBox="0 0 24 24"><title>it-github</title><g><path d="M12,2A10,10,0,0,0,8.84,21.49c.5.09.68-.22.68-.48s0-.87,0-1.7C6.73,19.91,6.14,18,6.14,18A2.69,2.69,0,0,0,5,16.5c-.91-.62.07-.61.07-.61a2.13,2.13,0,0,1,1.53,1,2.14,2.14,0,0,0,2.91.83,2.16,2.16,0,0,1,.63-1.34C8,16.17,5.62,15.31,5.62,11.48a3.89,3.89,0,0,1,1-2.69,3.57,3.57,0,0,1,.1-2.64s.84-.27,2.75,1a9.63,9.63,0,0,1,5,0c1.91-1.29,2.75-1,2.75-1a3.57,3.57,0,0,1,.1,2.64,3.89,3.89,0,0,1,1,2.69c0,3.84-2.34,4.68-4.57,4.93a2.39,2.39,0,0,1,.68,1.85c0,1.34,0,2.42,0,2.75s.18.58.69.48A10,10,0,0,0,12,2Z"/></g></svg>
